X: 10113
T: MAJOR GRAHAM
R: Strathspey
B: K\"ohler's Violin Repository, v.1, 1885 p.11 #3
F: http://www.archive.org/details/klersviolinrepos01edin
Z: 2011 John Chambers <jc:trillian.mit.edu>
N: Time signature missing; fixed.
M: C
L: 1/8
K: G
uG |\
(D>E)(.G>.G) G2(g>e) | d<B(B>G) A3u(G/B/) | (D>E)(.G>.G) G2(g>e) | d<B(A>B) G3 :|
ud |\
(.g>.a)(.g>.f) e>deg | d<B(B>G) (A3d) | (.g>.a)(.g>.f) e>deg | d<B(A>B) G3ud |
(.g>.a)(.g>.f) e>deg | d<B(B>G)A3u(G/B/) | (D>E)(.G>.G) G2(g>e) | d<B(A>B) G3 |]

%%sep 2 1 500

